assets/symbols/mulberry/engine.svg

<svg height="850.394" viewBox="0 0 850.394 850.394" width="850.394" xmlns="http://www.w3.org/2000/svg"><path d="m707.46 206.28c8.78 2.89 15.14 11.31 15.14 21.25 0 9.47-5.76 17.55-13.89 20.8-2.47 1-5.16 1.54-7.97 1.54-12.07 0-21.86-10-21.86-22.34 0-12.33 9.79-22.33 21.86-22.33 2.35 0 4.61.38 6.72 1.08zm53.15 120.09s14.26 73.65-5.7 85.05-28.521 0-28.521 0h-.01c2.09-9.87 2.82-21.86 2.9-33.24.149-20.98-1.931-39.93-1.931-39.93l-11.88-11.88z" fill="#787878"/><path d="m725.45 378.16 3.83.02c-.08 11.38-.811 23.37-2.9 33.24-2.67 12.67-7.56 21.86-16.13 21.86h-49.42v-55.12zm-77.93 73.17c6.04 0 10.931 5.11 10.931 11.41 0 6.29-4.891 11.399-10.931 11.399-6.029 0-10.93-5.109-10.93-11.399 0-6.3 4.9-11.41 10.93-11.41zm-154.42 154.43c6.03 0 10.92 5.11 10.92 11.41 0 6.29-4.89 11.4-10.92 11.4-6.04 0-10.93-5.11-10.93-11.4 0-6.3 4.89-11.41 10.93-11.41zm120.51-196.24v31.95h-67.8v-31.95h3.51zm0-26.49v26.49h-67.8v-26.49zm-95.03-58.39v31.96h-67.8v-31.96h3.51zm0-26.49v26.49h-67.8v-26.49zm-193.87 112.21v31.95h-67.8v-31.95h3.51zm0-26.5v26.5h-67.8v-26.5zm95.98-85.71v26.49h-67.79v-26.49zm0 26.49v31.96h-67.79v-31.96h3.5z" fill="#787878"/><path d="m204.03 173.84h44.36v121.64h-57.97v-121.64z" fill="#c8c8c8"/><path d="m199.27 534.31c6.56 0 11.88 5.32 11.88 11.881 0 3.279-1.33 6.25-3.48 8.399a11.843 11.843 0 0 1 -8.4 3.48h-25.96v-23.761h25.96z" fill="#787878"/><g fill="#c8c8c8"><path d="m256.91 442.31h67.8v-58.45h-67.8zm288.9-.84h67.801v-58.44h-67.801zm179.64-63.31h-64.62v55.12h11.17v.72l-.67 36.27-1.68 91.721-1.22 66.109-49.42 85.521v-73.17c-12.35-4.75-125.439 24.71-183.41 38.01-57.97 13.31-85.53 0-95.979-28.51-10.46-28.51-85.53-28.51-85.53-28.51h-5.7v-317.411h83.63v145.4h102.63v-306h266.56l6.25 62.85c-2.11-.7-4.37-1.08-6.72-1.08-12.07 0-21.86 10-21.86 22.33 0 12.34 9.79 22.34 21.86 22.34 2.81 0 5.5-.54 7.97-1.54l-15.57 55.7 22.33 22.34 11.88 11.88s2.08 18.95 1.931 39.93zm-67 84.58c0-6.3-4.891-11.41-10.931-11.41-6.029 0-10.93 5.11-10.93 11.41 0 6.29 4.9 11.399 10.93 11.399 6.041.001 10.931-5.109 10.931-11.399zm-139.87-106.14v-58.45h-67.8v58.45zm-14.56 260.57c0-6.3-4.89-11.41-10.92-11.41-6.04 0-10.93 5.11-10.93 11.41 0 6.29 4.89 11.4 10.93 11.4 6.03 0 10.92-5.11 10.92-11.4z"/><path d="m420.69 298.15h-67.79v58.45h67.79zm13.96-154.72v306h-102.63v-306z"/><path d="m327.26 304.03h-78.87v-130.19h-44.36l10.14-52.27 199.57-11.4 17.11-17.11 95.03-5.7 89.33 31.36 84.58 10.45 1.42 14.26h-369.19v160.6z"/></g><path d="m619.01 713.62v14.26s-70.319 11.4-157.75 28.51c-87.43 17.11-122.59 7.601-131.15-25.659-8.55-33.261-81.72-25.66-81.72-25.66v-83.631h5.7s75.07 0 85.53 28.51c10.45 28.51 38.01 41.819 95.979 28.51 57.971-13.3 171.061-42.76 183.41-38.01v73.17zm-428.59-341.46v-76.68h57.97v381.079h-4.76l-61.77 24.71v29.461l-95.03 4.75-7.6-160.601 36.77 7.05 57.31 11v-34.859h25.96c3.28 0 6.25-1.33 8.4-3.48a11.84 11.84 0 0 0 3.48-8.399c0-6.561-5.32-11.881-11.88-11.881h-25.96v-54.47c0-69.37 17.11-100.73 17.11-100.73z" fill="#787878"/><path d="m116.29 423.77 34.21-47.51 39.92-4.1v6.95s-17.11 31.36-17.11 100.73v113.09l-57.31-11zm74.13-235.68v71.28s-68.43 14.25-68.43-19.01v-90.28h33.26v38.01zm552.14 282.25v105.49h-31.36l-7.61-15.21-33.59 1.38-.35-.01 1.68-91.72 3.75.07z" fill="#787878"/><g fill="none" stroke="#231f20"><path d="m695.04 177.64h-76.03v550.24s-70.319 11.4-157.75 28.51c-87.43 17.11-122.59 7.601-131.15-25.659-8.55-33.261-81.72-25.66-81.72-25.66v-531.231h-57.97v205.27s-17.11 31.36-17.11 100.73v113.09l-57.31-11-36.77-7.05 7.6 160.601 95.03-4.75v-29.461l61.77-24.71" stroke-width="21"/><path d="m192 372-1.58.16-39.92 4.1-34.21 47.51-.29 158.16v.07" stroke-width="21"/><path d="m182.12 462.08h19.96c6.56 0 11.88 5.32 11.88 11.88 0 3.28-1.33 6.26-3.48 8.4a11.846 11.846 0 0 1 -8.4 3.479h-19.96m-2.81 48.471h19.96c6.56 0 11.88 5.32 11.88 11.881 0 3.279-1.33 6.25-3.48 8.399a11.843 11.843 0 0 1 -8.4 3.48h-19.96" stroke-width="14"/><path d="m170.46 595.78 4.75 125.45" stroke-width="15.205"/><path d="m195.17 295.48h53.22" stroke-width="14"/><path d="m204 174 .03-.16 10.14-52.27 199.57-11.4 17.11-17.11 95.03-5.7 89.33 31.36 84.58 10.45 1.42 14.26 6.25 62.85.41 4.15m-287.18 114.21v31.96h-67.79v-58.45h67.79zm0 0h-64.29m-31.69 85.72v31.95h-67.8v-58.45h67.8zm0 0h-64.29m258.16-85.72v31.96h-67.8v-58.45h67.8zm0 0h-64.29m159.32 84.88v31.95h-67.8v-58.44h67.8zm0 0h-64.29m-331.34-266.09h483.59" stroke-width="21"/><path d="m707.46 206.28c8.78 2.89 15.14 11.31 15.14 21.25 0 9.47-5.76 17.55-13.89 20.8-2.47 1-5.16 1.54-7.97 1.54-12.07 0-21.86-10-21.86-22.34 0-12.33 9.79-22.33 21.86-22.33 2.35 0 4.61.38 6.72 1.08zm-375.44-62.85v459.96m102.63-459.96v459.96m98.83-451.41v459.96m-276.54-430.5h32.31m-32.31 30.1h32.31" stroke-width="21"/><path d="m256.94 241h32.31" stroke-width="22.808"/><path d="m342.47 170.35h32.31m-32.31 30.1h32.31m-32.31 29.46h32.31m69.37-59.56h32.31m-32.31 30.1h32.31m-32.31 29.46h32.31m66.53-51.95h32.31m-32.31 30.09h32.31m-32.31 29.46h32.31m-301.26 9.5v54.17m187.22-68.42v54.17m-208.12 17.1h74.12m36.12-67.47v56.07m194.81-54.17v54.17m-14.25 8.55h75.07m-286.99 148.25h196.71m-338.31-190.06s-68.43 14.25-68.43-19.01v-90.28h33.26v38.01h35.17m63.67 433.35s75.07 0 85.53 28.51c10.45 28.51 38.01 41.819 95.979 28.51 57.971-13.3 171.061-42.76 183.41-38.01m89.711-392.14-.01.02-15.57 55.7 22.33 22.34 11.88 11.88s2.08 18.95 1.931 39.93c-.08 11.38-.811 23.37-2.9 33.24-2.67 12.67-7.56 21.86-16.13 21.86h-49.42v-55.12h64.62m-53.451 55.84-.67 36.27-1.68 91.72-1.22 66.11-49.42 85.52" stroke-width="21"/><path d="m715.47 326.37h45.141s14.26 73.65-5.7 85.05-28.521 0-28.521 0m-51.31 58.92h67.48v105.49h-31.36l-7.61-15.21-33.59 1.38" stroke-width="21"/><path d="m658.45 462.74c0 6.29-4.891 11.399-10.931 11.399-6.029 0-10.93-5.109-10.93-11.399 0-6.3 4.9-11.41 10.93-11.41 6.041 0 10.931 5.11 10.931 11.41zm-154.43 154.43c0 6.29-4.89 11.4-10.92 11.4-6.04 0-10.93-5.11-10.93-11.4 0-6.3 4.89-11.41 10.93-11.41 6.03 0 10.92 5.11 10.92 11.41zm-102.31-158.55v105.18c0 11.891-9.65 21.54-21.54 21.54-5.95 0-11.33-2.41-15.23-6.31a21.48 21.48 0 0 1 -6.31-15.23v-110.24m146.98 5.06v105.18c0 11.891-9.65 21.54-21.54 21.54-5.95 0-11.34-2.41-15.24-6.31s-6.311-9.29-6.311-15.23v-110.24m135.591-1.27v105.18c0 11.891-9.65 21.53-21.54 21.53-5.95 0-11.34-2.41-15.24-6.31a21.427 21.427 0 0 1 -6.311-15.221v-110.239m-243.279 5.06v105.18c0 11.891-9.64 21.53-21.54 21.53a21.48 21.48 0 0 1 -15.23-6.31 21.426 21.426 0 0 1 -6.31-15.221v-110.239" stroke-width="14"/></g><path d="m0 0h850.394v850.394h-850.394z" fill="none"/></svg>

<svg xmlns="http://www.w3.org/2000/svg" width="850.394" height="850.394" viewBox="0 0 850.394 850.394" overflow="visible"><path d="M707.46 206.28c8.78 2.89 15.14 11.31 15.14 21.25 0 9.47-5.76 17.55-13.89 20.8-2.47 1-5.16 1.54-7.97 1.54-12.07 0-21.86-10-21.86-22.34 0-12.33 9.79-22.33 21.86-22.33 2.35 0 4.61.38 6.72 1.08zM760.61 326.37s14.26 73.65-5.7 85.05-28.521 0-28.521 0h-.01c2.09-9.87 2.82-21.86 2.9-33.24.149-20.98-1.931-39.93-1.931-39.93l-11.88-11.88h45.142z" fill="#787878"/><path d="M725.45 378.16l3.83.02c-.08 11.38-.811 23.37-2.9 33.24-2.67 12.67-7.56 21.86-16.13 21.86h-49.42v-55.12h64.62zM647.52 451.33c6.04 0 10.931 5.11 10.931 11.41 0 6.29-4.891 11.399-10.931 11.399-6.029 0-10.93-5.109-10.93-11.399 0-6.3 4.9-11.41 10.93-11.41zM493.1 605.76c6.03 0 10.92 5.11 10.92 11.41 0 6.29-4.89 11.4-10.92 11.4-6.04 0-10.93-5.11-10.93-11.4 0-6.3 4.89-11.41 10.93-11.41zM613.61 409.52v31.95h-67.8v-31.95h3.51zM613.61 383.03v26.49H545.81V383.03zM518.58 324.64v31.96h-67.8v-31.96h3.51zM518.58 298.15v26.49H450.78V298.15zM324.71 410.36v31.95h-67.8v-31.95h3.51zM324.71 383.86v26.5H256.91v-26.5zM420.69 298.15v26.49H352.9V298.15zM420.69 324.64v31.96H352.9v-31.96h3.5z" fill="#787878"/><path fill="#c8c8c8" d="M204.03 173.84h44.36v121.64h-57.97V173.84z"/><path d="M199.27 534.31c6.56 0 11.88 5.32 11.88 11.881 0 3.279-1.33 6.25-3.48 8.399a11.843 11.843 0 0 1-8.4 3.48h-25.96v-23.761h25.96z" fill="#787878"/><path d="M256.91 442.31h67.8v-58.45h-67.8v58.45zm288.9-.84h67.801v-58.44H545.81v58.44zm179.64-63.31h-64.62v55.12H672v.72l-.67 36.27-1.68 91.721-1.22 66.109-49.42 85.521v-73.17c-12.35-4.75-125.439 24.71-183.41 38.01-57.97 13.31-85.53 0-95.979-28.51-10.46-28.51-85.53-28.51-85.53-28.51h-5.7V304.03H332.021v145.4h102.63v-306h266.56l6.25 62.85c-2.11-.7-4.37-1.08-6.72-1.08-12.07 0-21.86 10-21.86 22.33 0 12.34 9.79 22.34 21.86 22.34 2.81 0 5.5-.54 7.97-1.54l-15.57 55.7 22.33 22.34 11.88 11.88s2.08 18.95 1.931 39.93l-3.832-.02zm-67 84.58c0-6.3-4.891-11.41-10.931-11.41-6.029 0-10.93 5.11-10.93 11.41 0 6.29 4.9 11.399 10.93 11.399 6.041.001 10.931-5.109 10.931-11.399zM518.58 356.6v-58.45h-67.8v58.45h67.8zm-14.56 260.57c0-6.3-4.89-11.41-10.92-11.41-6.04 0-10.93 5.11-10.93 11.41 0 6.29 4.89 11.4 10.93 11.4 6.03 0 10.92-5.11 10.92-11.4z" fill="#c8c8c8"/><path d="M420.69 298.15H352.9v58.45h67.79v-58.45zm13.96-154.72v306H332.02v-306h102.63z" fill="#c8c8c8"/><path fill="#c8c8c8" d="M327.26 304.03h-78.87V173.84h-44.36l10.14-52.27 199.57-11.4 17.11-17.11 95.03-5.7 89.33 31.36 84.58 10.45 1.42 14.26H332.02v160.6z"/><path d="M619.01 713.62v14.26s-70.319 11.4-157.75 28.51c-87.43 17.11-122.59 7.601-131.15-25.659-8.55-33.261-81.72-25.66-81.72-25.66V621.44h5.7s75.07 0 85.53 28.51c10.45 28.51 38.01 41.819 95.979 28.51 57.971-13.3 171.061-42.76 183.41-38.01v73.17zM190.42 372.16v-76.68h57.97V676.559h-4.76l-61.77 24.71v29.461l-95.03 4.75-7.6-160.601 36.77 7.05 57.31 11V558.07h25.96c3.28 0 6.25-1.33 8.4-3.48a11.84 11.84 0 0 0 3.48-8.399c0-6.561-5.32-11.881-11.88-11.881h-25.96v-54.47c0-69.37 17.11-100.73 17.11-100.73v-6.95z" fill="#787878"/><path d="M116.29 423.77l34.21-47.51 39.92-4.1v6.95s-17.11 31.36-17.11 100.73v113.09l-57.31-11 .29-158.16zM190.42 188.09v71.28s-68.43 14.25-68.43-19.01v-90.28h33.26v38.01h35.17zM742.56 470.34v105.49H711.2l-7.61-15.21L670 562l-.35-.01 1.68-91.72 3.75.07z" fill="#787878"/><g fill="none" stroke="#231f20"><path d="M695.04 177.64h-76.03v550.24s-70.319 11.4-157.75 28.51c-87.43 17.11-122.59 7.601-131.15-25.659-8.55-33.261-81.72-25.66-81.72-25.66V173.84h-57.97v205.27s-17.11 31.36-17.11 100.73v113.09l-57.31-11-36.77-7.05 7.6 160.601 95.03-4.75V701.27l61.77-24.71" stroke-width="21"/><path stroke-width="21" d="M192 372l-1.58.16-39.92 4.1-34.21 47.51-.29 158.16v.07"/><path d="M182.12 462.08h19.96c6.56 0 11.88 5.32 11.88 11.88 0 3.28-1.33 6.26-3.48 8.4a11.846 11.846 0 0 1-8.4 3.479h-19.96M179.31 534.31h19.96c6.56 0 11.88 5.32 11.88 11.881 0 3.279-1.33 6.25-3.48 8.399a11.843 11.843 0 0 1-8.4 3.48h-19.96" stroke-width="14"/><path stroke-width="15.205" d="M170.46 595.78l4.75 125.45"/><path stroke-width="14" d="M195.17 295.48h53.22"/><path stroke-width="21" d="M204 174l.03-.16 10.14-52.27 199.57-11.4 17.11-17.11 95.03-5.7 89.33 31.36 84.58 10.45 1.42 14.26 6.25 62.85.41 4.15M420.69 324.64v31.96H352.9v-58.45h67.79zM420.69 324.64H356.4M324.71 410.36v31.95h-67.8v-58.45h67.8zM324.71 410.36h-64.29M518.58 324.64v31.96h-67.8v-58.45h67.8zM518.58 324.64h-64.29M613.61 409.52v31.95h-67.8v-58.44h67.8zM613.61 409.52h-64.29M217.98 143.43H701.57"/><path d="M707.46 206.28c8.78 2.89 15.14 11.31 15.14 21.25 0 9.47-5.76 17.55-13.89 20.8-2.47 1-5.16 1.54-7.97 1.54-12.07 0-21.86-10-21.86-22.34 0-12.33 9.79-22.33 21.86-22.33 2.35 0 4.61.38 6.72 1.08zM332.02 143.43V603.39M434.65 143.43V603.39M533.48 151.98v459.96M256.94 181.44h32.31M256.94 211.54h32.31" stroke-width="21"/><path stroke-width="22.808" d="M256.94 241h32.31"/><path stroke-width="21" d="M342.47 170.35h32.31M342.47 200.45h32.31M342.47 229.91h32.31M444.15 170.35h32.31M444.15 200.45h32.31M444.15 229.91h32.31M542.99 177.96h32.31M542.99 208.05h32.31M542.99 237.51h32.31M274.04 247.01v54.17M461.26 232.76v54.17M253.14 304.03h74.12M363.38 236.56v56.07M558.19 238.46v54.17M543.94 301.18h75.07M332.02 449.43H528.73M190.42 259.37s-68.43 14.25-68.43-19.01v-90.28h33.26v38.01h35.17M254.09 621.44s75.07 0 85.53 28.51c10.45 28.51 38.01 41.819 95.979 28.51 57.971-13.3 171.061-42.76 183.41-38.01M708.72 248.31l-.01.02-15.57 55.7 22.33 22.34 11.88 11.88s2.08 18.95 1.931 39.93c-.08 11.38-.811 23.37-2.9 33.24-2.67 12.67-7.56 21.86-16.13 21.86h-49.42v-55.12h64.62M672 434l-.67 36.27-1.68 91.72-1.22 66.11-49.42 85.52"/><path d="M715.47 326.37h45.141s14.26 73.65-5.7 85.05-28.521 0-28.521 0M675.08 470.34h67.48v105.49H711.2l-7.61-15.21L670 562" stroke-width="21"/><path d="M658.45 462.74c0 6.29-4.891 11.399-10.931 11.399-6.029 0-10.93-5.109-10.93-11.399 0-6.3 4.9-11.41 10.93-11.41 6.041 0 10.931 5.11 10.931 11.41zM504.02 617.17c0 6.29-4.89 11.4-10.92 11.4-6.04 0-10.93-5.11-10.93-11.4 0-6.3 4.89-11.41 10.93-11.41 6.03 0 10.92 5.11 10.92 11.41zM401.71 458.62V563.8c0 11.891-9.65 21.54-21.54 21.54-5.95 0-11.33-2.41-15.23-6.31a21.48 21.48 0 0 1-6.31-15.23V453.56M505.61 458.62V563.8c0 11.891-9.65 21.54-21.54 21.54-5.95 0-11.34-2.41-15.24-6.31-3.9-3.9-6.311-9.29-6.311-15.23V453.56M598.11 452.29v105.18c0 11.891-9.65 21.53-21.54 21.53-5.95 0-11.34-2.41-15.24-6.31a21.427 21.427 0 0 1-6.311-15.221V447.23M311.74 452.29v105.18c0 11.891-9.64 21.53-21.54 21.53a21.48 21.48 0 0 1-15.23-6.31 21.426 21.426 0 0 1-6.31-15.221V447.23" stroke-width="14"/></g><path fill="none" d="M0 0h850.394v850.394H0z"/></svg>
